icons/Document/file-ppt-2-fill.svg

<svg viewBox="0 0 24 24" xmlns="http://www.w3.org/2000/svg"><path d="M17 3.00022H21C21.5523 3.00022 22 3.44793 22 4.00022V20.0002C22 20.5525 21.5523 21.0002 21 21.0002H17V3.00022ZM2.85858 2.87756L15.4293 1.08175C15.7027 1.0427 15.9559 1.23265 15.995 1.50601C15.9983 1.52943 16 1.55306 16 1.57672V22.4237C16 22.6999 15.7761 22.9237 15.5 22.9237C15.4763 22.9237 15.4527 22.922 15.4293 22.9187L2.85858 21.1229C2.36593 21.0525 2 20.6306 2 20.1329V3.86751C2 3.36986 2.36593 2.94794 2.85858 2.87756ZM5 8.00022V16.0002H7V14.0002H13V8.00022H5ZM7 10.0002H11V12.0002H7V10.0002Z"/></svg>

<svg xmlns="http://www.w3.org/2000/svg" viewBox="0 0 24 24">
    <g>
        <path fill="none" d="M0 0h24v24H0z"/>
        <path d="M17 3h4a1 1 0 0 1 1 1v16a1 1 0 0 1-1 1h-4V3zM2.859 2.877l12.57-1.795a.5.5 0 0 1 .571.495v20.846a.5.5 0 0 1-.57.495L2.858 21.123a1 1 0 0 1-.859-.99V3.867a1 1 0 0 1 .859-.99zM5 8v8h2v-2h6V8H5zm2 2h4v2H7v-2z"/>
    </g>
</svg>
